!!!OTL: MORGENROTH MORGENROTH
!!!ARE: Europa, Mitteleuropa, Deutschland
!!!SCT: B0575
!!!YEM: Copyright 1995, estate of Helmut Schaffrath.
**kern
*ICvox
*Ivox
*M3/4
*k[f#]
*G:
{8.d
16b
=1
4b
4a
8.d
16cc
=2
4cc
4b}
{8g
8b
=3
4.dd
8b
8cc
8a
=4
4a
4g
4r}
=5
{8.g
16b
8b
8b
8b
8dd
=6
8.dd
16cc
4a
4r}
=7
{8.a
16cc
8cc
8cc
8cc
8ee
=8
8.ee
16dd
4b}
{8g
8b
=9
4.dd
8b
8cc
8a
=10
4a
4g
4r}
=11
{8.g
16b
8b
8b
8b
8dd
=12
8.dd
16cc
4a
4r}
=13
{8.a
16cc
8cc
8cc
8cc
8ee
=14
8.ee
16dd
4b}
{8g
8b
=15
4.dd
8b
8cc
8a
=16
4a
4g}
==
!!!AGN: Staende -, Soldaten - Lied
!!!ONB: ESAC (Essen Associative Code) Database: BOEHME
!!!AMT: simple triple
!!!AIN: vox
!!!EED: Helmut Schaffrath
!!!EEV: 1.0
*-
